X:1
T:Title
%%score { ( 1 3 ) | ( 2 4 ) }
L:1/8
M:4/4
K:D
V:1 treble nm="Grand Piano"
V:3 treble 
V:2 bass 
V:4 bass 
V:1
 z4 z2[Q:1/4=100] F2 | F3 E DEFG | F6 F2 | [EG]3 [DF] [CE][DF][EG][CA] |[M:3/4] [DF]6 | %5
[M:1/4] [FA]2 |[M:4/4] [FA]3 [EG] [DF][EG][FA][GB] | [FA]6 [FA]2 | [Fd]3 [Fd] cBA^G | %9
[M:3/4] [CEA]6 |[M:1/4] [A,EG][A,EG] |[M:4/4] z [FA]3- [FA]2 z2 | z [GB]3- [GB]2 z2 | %13
 A2 z2 [Fd]2 z2 |[M:3/4] c6 |[M:1/4] BA |[M:4/4] z [FA]3- [FA]2 z2 | z [GB]3- [GB]2 z2 | %18
 A2 d2 d2 c2 |[M:3/4] d-[Fd-] [Gd-][Gd-] [Fd]2 |] %20
V:2
 z4 z2 [D,A,D]2 | [D,A,D]3 [D,G,D] [D,F,][D,G,D][D,A,D][D,B,D] | [D,A,D]6 [D,A,D]2 | %3
 [A,,A,]3 [A,,A,] [A,,A,][A,,A,][A,,A,][A,,A,] |[M:3/4] [D,A,]6 |[M:1/4] [D,D]2 | %6
[M:4/4] [D,D]3 [D,A,] [D,A,][D,A,][D,D][D,D] | [D,D]6 [D,D]2 | %8
 [D,A,]3 [D,A,] [E,A,E][E,DE][E,CE][E,B,E] |[M:3/4] A,,6 |[M:1/4] A,,A,, | %11
[M:4/4] D,D,D,D, D,2 D,D, | G,G,G,G, G,2[K:treble] BB | z2 d2[K:bass] D,2 F,2 | %14
[M:3/4][K:treble] [A,EG][A,E] [A,E][A,E] [A,E]2 |[M:1/4][K:bass] [A,CE][A,C] | %16
[M:4/4] [D,A,D][D,D]D,D, D,2 D,D, | G,G,G,G, G,2 z2 | [A,D]2 z2[K:bass] z4 | %19
[M:3/4] [D,A,][D,A,] [D,B,][D,B,] [D,A,]2 |] %20
V:3
 x8 | x8 | x8 | x8 |[M:3/4] x6 |[M:1/4] x2 |[M:4/4] x8 | x8 | x8 |[M:3/4] x6 |[M:1/4] x2 | %11
[M:4/4] [A,DF]DDD D2 [DFA][DFA] | [DG]DDD D2 z2 | [DF]4 D2- [DAd]2 |[M:3/4] z G GG G2 |[M:1/4] x2 | %16
[M:4/4] .F2 DD D2 [DFA][DFA] | [DG]DDD D2 BB | z4 G4 |[M:3/4] .F2 z2 z2 |] %20
V:4
 x8 | x8 | x8 | x8 |[M:3/4] x6 |[M:1/4] x2 |[M:4/4] x8 | x8 | x8 |[M:3/4] x6 |[M:1/4] x2 | %11
[M:4/4] x8 | x6[K:treble] x2 | D,4[K:bass] z4 |[M:3/4][K:treble] x6 |[M:1/4][K:bass] x2 | %16
[M:4/4] x8 | x8 | F2- [A,F]2[K:bass] [A,,A,]4 |[M:3/4] x6 |] %20

